X: 791
T: John White's Mother.
B:O'Neill's Music of Ireland
N:O'Neill's - 791
Z:Transcribed by Stephen Foy (shf@access.digex.net)
Z:abc 1.6
R:Jig
M:6/8
K:D
d|DED AFA|dcB AFD|B>EE EFA|B>EE E2 F|\
DED FDF|ABc dAF|A>DD DED|A>FD D2||
||A|def edB|AFA d2 c|Bee (g/f/e)d|Bee e2 A|\
def edB|dAG FGE|DFA deg|f>dd d2|]


